build/svg/cmd/sc_titleparastyle.svg

<?xml version="1.0" encoding="UTF-8" standalone="no"?>
<svg
   xmlns:dc="http://purl.org/dc/elements/1.1/"
   xmlns:cc="http://creativecommons.org/ns#"
   xmlns:rdf="http://www.w3.org/1999/02/22-rdf-syntax-ns#"
   xmlns:svg="http://www.w3.org/2000/svg"
   xmlns="http://www.w3.org/2000/svg"
   xmlns:sodipodi="http://sodipodi.sourceforge.net/DTD/sodipodi-0.dtd"
   xmlns:inkscape="http://www.inkscape.org/namespaces/inkscape"
   viewBox="0 0 16 16"
   version="1.1"
   id="svg6"
   sodipodi:docname="sc_titleparastyle.svg"
   inkscape:version="0.92.5 (2060ec1f9f, 2020-04-08)"
   inkscape:export-filename="/home/jupiter007/Libreoffice yaru theme fullcolor/build/cmd/sc_titleparastyle.png"
   inkscape:export-xdpi="96"
   inkscape:export-ydpi="96">
  <metadata
     id="metadata12">
    <rdf:RDF>
      <cc:Work
         rdf:about="">
        <dc:format>image/svg+xml</dc:format>
        <dc:type
           rdf:resource="http://purl.org/dc/dcmitype/StillImage" />
      </cc:Work>
    </rdf:RDF>
  </metadata>
  <defs
     id="defs10" />
  <sodipodi:namedview
     pagecolor="#ffffff"
     bordercolor="#666666"
     borderopacity="1"
     objecttolerance="10"
     gridtolerance="10"
     guidetolerance="10"
     inkscape:pageopacity="0"
     inkscape:pageshadow="2"
     inkscape:window-width="1920"
     inkscape:window-height="1011"
     id="namedview8"
     showgrid="false"
     inkscape:zoom="14.75"
     inkscape:cx="0.57627119"
     inkscape:cy="7.6610169"
     inkscape:window-x="0"
     inkscape:window-y="32"
     inkscape:window-maximized="1"
     inkscape:current-layer="svg6" />
  <path
     style="fill:#000000;fill-opacity:1;stroke:#000000;opacity:0.6;stroke-width:2;stroke-miterlimit:4;stroke-dasharray:none;stroke-linejoin:round"
     id="path824"
     fill="#762572"
     d="m12.949219 8-1.949219 1.5390625.617188.7636715.695312-.5546871c.082758-.0656635.228992-.2033922.441406-.4140625l-.019531.6230468-.013672.5703128v3.472656h1.279297v-6z" />
  <path
     style="fill:#000000;stroke:#000000;opacity:0.6;stroke-width:2;stroke-miterlimit:4;stroke-dasharray:none;stroke-linejoin:round"
     id="path822"
     fill="#232629"
     d="m9 14h-2v-10h-4v-2h10v2h-4z" />
  <path
     d="m9 14h-2v-10h-4v-2h10v2h-4z"
     fill="#232629"
     id="path2"
     style="fill:#ffffff" />
  <path
     d="m12.949219 8-1.949219 1.5390625.617188.7636715.695312-.5546871c.082758-.0656635.228992-.2033922.441406-.4140625l-.019531.6230468-.013672.5703128v3.472656h1.279297v-6z"
     fill="#762572"
     id="path4"
     style="fill:#aee3f8;fill-opacity:1;stroke:none;stroke-opacity:1;stroke-width:0.25;stroke-miterlimit:4;stroke-dasharray:none" />
</svg>

<svg xmlns="http://www.w3.org/2000/svg" viewBox="0 0 16 16"><path d="M12.95 8L11 9.54l.617.763.695-.555a6.75 6.75 0 00.442-.414l-.02.623-.013.57V14H14V8zM9 14H7V4H3V2h10v2H9z" stroke="#000" opacity=".6" stroke-width="2" stroke-linejoin="round"/><path d="M9 14H7V4H3V2h10v2H9z" fill="#fff"/><path d="M12.95 8L11 9.54l.617.763.695-.555a6.75 6.75 0 00.442-.414l-.02.623-.013.57V14H14V8z" fill="#aee3f8"/></svg>
